assets/img/cow-15.svg

<svg class="svg-icon" style="width: 1em; height: 1em;vertical-align: middle;fill: currentColor;color:#19cc96;overflow: hidden;" viewBox="0 0 1024 1024" version="1.1" xmlns="http://www.w3.org/2000/svg"><path d="M448 768C459.946667 768 469.333333 777.386667 469.333333 789.333333 469.333333 801.28 459.946667 810.666667 448 810.666667 436.053333 810.666667 426.666667 801.28 426.666667 789.333333 426.666667 777.386667 436.053333 768 448 768M576 768C587.946667 768 597.333333 777.386667 597.333333 789.333333 597.333333 801.28 587.946667 810.666667 576 810.666667 564.053333 810.666667 554.666667 801.28 554.666667 789.333333 554.666667 777.386667 564.053333 768 576 768M426.666667 469.333333C450.133333 469.333333 469.333333 488.533333 469.333333 512 469.333333 535.466667 450.133333 554.666667 426.666667 554.666667 403.2 554.666667 384 535.466667 384 512 384 488.533333 403.2 469.333333 426.666667 469.333333M597.333333 469.333333C620.8 469.333333 640 488.533333 640 512 640 535.466667 620.8 554.666667 597.333333 554.666667 573.866667 554.666667 554.666667 535.466667 554.666667 512 554.666667 488.533333 573.866667 469.333333 597.333333 469.333333M768 768C768 862.293333 653.226667 938.666667 512 938.666667 370.773333 938.666667 256 862.293333 256 768 256 729.6 275.2 694.186667 307.2 665.6 275.2 622.933333 256 569.6 256 512L261.12 459.946667C238.08 466.346667 210.346667 466.346667 187.733333 459.946667 144.213333 448 78.506667 398.933333 88.32 364.8 98.133333 330.666667 179.626667 324.266667 223.146667 337.066667 248.32 344.32 275.2 362.666667 290.986667 382.293333L315.306667 347.733333C289.706667 300.8 298.666667 170.666667 426.666667 128L422.826667 133.973333 422.826667 133.973333C410.88 152.746667 380.16 212.053333 412.586667 276.053333 443.306667 263.253333 476.586667 256 512 256 547.413333 256 580.693333 263.253333 611.413333 276.053333 643.84 212.053333 613.12 152.746667 601.173333 133.973333L597.333333 128C725.333333 170.666667 734.293333 300.8 708.693333 347.733333L733.013333 382.293333C748.8 362.666667 775.68 344.32 800.853333 337.066667 844.373333 324.266667 925.866667 330.666667 935.68 364.8 945.493333 398.933333 879.786667 448 836.266667 459.946667 813.653333 466.346667 785.92 466.346667 762.88 459.946667L768 512C768 569.6 748.8 622.933333 716.8 665.6 748.8 694.186667 768 729.6 768 768M512 682.666667C417.706667 682.666667 341.333333 721.066667 341.333333 768 341.333333 814.933333 417.706667 853.333333 512 853.333333 606.293333 853.333333 682.666667 814.933333 682.666667 768 682.666667 721.066667 606.293333 682.666667 512 682.666667M512 597.333333C559.786667 597.333333 604.586667 606.293333 642.986667 621.226667 667.733333 591.786667 682.666667 554.666667 682.666667 512 682.666667 417.706667 606.293333 341.333333 512 341.333333 417.706667 341.333333 341.333333 417.706667 341.333333 512 341.333333 554.666667 356.266667 591.786667 381.013333 621.226667 419.413333 606.293333 464.213333 597.333333 512 597.333333M601.173333 133.973333 601.173333 133.973333Z"  /></svg>

<svg class="svg-icon" style="width:1em;height:1em;vertical-align:middle;fill:currentColor;color:#19cc96;overflow:hidden" viewBox="0 0 1024 1024" xmlns="http://www.w3.org/2000/svg"><path d="M448 768c11.947 0 21.333 9.387 21.333 21.333 0 11.947-9.386 21.334-21.333 21.334s-21.333-9.387-21.333-21.334c0-11.946 9.386-21.333 21.333-21.333m128 0c11.947 0 21.333 9.387 21.333 21.333 0 11.947-9.386 21.334-21.333 21.334s-21.333-9.387-21.333-21.334c0-11.946 9.386-21.333 21.333-21.333M426.667 469.333c23.466 0 42.666 19.2 42.666 42.667 0 23.467-19.2 42.667-42.666 42.667C403.2 554.667 384 535.467 384 512c0-23.467 19.2-42.667 42.667-42.667m170.666 0C620.8 469.333 640 488.533 640 512c0 23.467-19.2 42.667-42.667 42.667-23.466 0-42.666-19.2-42.666-42.667 0-23.467 19.2-42.667 42.666-42.667M768 768c0 94.293-114.773 170.667-256 170.667S256 862.293 256 768c0-38.4 19.2-73.813 51.2-102.4-32-42.667-51.2-96-51.2-153.6l5.12-52.053c-23.04 6.4-50.773 6.4-73.387 0C144.213 448 78.507 398.933 88.32 364.8c9.813-34.133 91.307-40.533 134.827-27.733 25.173 7.253 52.053 25.6 67.84 45.226l24.32-34.56c-25.6-46.933-16.64-177.066 111.36-219.733l-3.84 5.973c-11.947 18.774-42.667 78.08-10.24 142.08 30.72-12.8 64-20.053 99.413-20.053s68.693 7.253 99.413 20.053c32.427-64 1.707-123.306-10.24-142.08l-3.84-5.973c128 42.667 136.96 172.8 111.36 219.733l24.32 34.56c15.787-19.626 42.667-37.973 67.84-45.226 43.52-12.8 125.014-6.4 134.827 27.733 9.813 34.133-55.893 83.2-99.413 95.147-22.614 6.4-50.347 6.4-73.387 0L768 512c0 57.6-19.2 110.933-51.2 153.6 32 28.587 51.2 64 51.2 102.4m-256-85.333c-94.293 0-170.667 38.4-170.667 85.333S417.707 853.333 512 853.333s170.667-38.4 170.667-85.333S606.293 682.667 512 682.667m0-85.334c47.787 0 92.587 8.96 130.987 23.894 24.746-29.44 39.68-66.56 39.68-109.227 0-94.293-76.374-170.667-170.667-170.667S341.333 417.707 341.333 512c0 42.667 14.934 79.787 39.68 109.227 38.4-14.934 83.2-23.894 130.987-23.894m89.173-463.36Z"/></svg>
